Dominus_Dark_Funeral/scalable/apps/preferences-system-notifications.svg

<?xml version="1.0" encoding="UTF-8" standalone="no"?><svg xmlns:dc="http://purl.org/dc/elements/1.1/" xmlns:cc="http://creativecommons.org/ns#" xmlns:rdf="http://www.w3.org/1999/02/22-rdf-syntax-ns#" xmlns="http://www.w3.org/2000/svg" xmlns:xlink="http://www.w3.org/1999/xlink" width="48" height="48"><metadata><rdf:RDF><cc:Work><dc:format>image/svg+xml</dc:format><dc:type rdf:resource="http://purl.org/dc/dcmitype/StillImage"/><dc:title/></cc:Work></rdf:RDF></metadata><defs><linearGradient id="g"><stop offset="0" stop-color="#374845"/><stop offset="1" stop-color="#536c67"/></linearGradient><linearGradient id="f"><stop offset="0" stop-color="#374845"/><stop offset="1" stop-color="#536c67"/></linearGradient><linearGradient id="b"><stop stop-color="#373e48" offset="0"/><stop stop-color="#535d6c" offset="1"/></linearGradient><linearGradient id="e"><stop offset="0" stop-color="#333" stop-opacity=".03"/><stop offset="1" stop-color="#1a1a1a"/></linearGradient><linearGradient id="d"><stop offset="0" stop-color="#535d6c"/><stop offset="1" stop-color="#fff"/></linearGradient><linearGradient id="a"><stop offset="0" stop-color="#39465c"/><stop offset="1" stop-opacity="0"/></linearGradient><linearGradient xlink:href="#a" id="m" gradientUnits="userSpaceOnUse" x1="48.09" y1="9.68" x2="60" y2="52" gradientTransform="matrix(.2121 -.12771 .11523 .19137 .32 15.81)"/><linearGradient xlink:href="#c" id="k" x1="78.57" y1="37.61" x2="71.97" y2="16.38" gradientUnits="userSpaceOnUse" gradientTransform="translate(-34.93 -.68) scale(.75666)"/><linearGradient id="c"><stop offset="0" stop-color="#1a1a1a"/><stop offset="1" stop-color="#4d4d4d"/></linearGradient><linearGradient xlink:href="#d" id="h" x1="23.99" y1="47.1" x2="24" y2=".35" gradientUnits="userSpaceOnUse"/><linearGradient xlink:href="#e" id="i" x1="24.42" y1="32.75" x2="24" y2=".49" gradientUnits="userSpaceOnUse"/><linearGradient xlink:href="#f" id="j" x1="19.85" y1="28.88" x2="22.03" y2="28.88" gradientUnits="userSpaceOnUse"/><linearGradient xlink:href="#g" id="l" x1="-5.33" y1="29.03" x2="-1.88" y2="29.03" gradientUnits="userSpaceOnUse"/></defs><path d="M24 .35c-5.83 0-10.52 1.12-13.93 3.33-4.1 2.66-6.27 6.9-6.27 12.27 0 7.23 5.8 16.88 7.58 19.67a54.48 54.48 0 0 0 6.25 8.16c2.54 2.64 4.57 3.87 6.37 3.87 1.8 0 3.83-1.23 6.37-3.87 2-2.08 4.22-4.97 6.25-8.16 1.78-2.79 7.58-12.44 7.58-19.67 0-5.37-2.16-9.61-6.26-12.27C34.52 1.47 29.84.35 24 .35z" fill="url(#h)"/><path d="M24 .35c-5.83 0-10.52 1.12-13.93 3.33-4.1 2.66-6.27 6.9-6.27 12.27 0 7.23 5.8 16.88 7.58 19.67a54.48 54.48 0 0 0 6.25 8.16c2.54 2.64 4.57 3.87 6.37 3.87 1.8 0 3.83-1.23 6.37-3.87 2-2.08 4.22-4.97 6.25-8.16 1.78-2.79 7.58-12.44 7.58-19.67 0-5.37-2.16-9.61-6.26-12.27C34.52 1.47 29.84.35 24 .35zm0 .14c2.11.09 4.12.27 5.88.7 1.16.27 2.25.62 3.26 1.03 1.01.42 1.94.9 2.8 1.46A12.92 12.92 0 0 1 40.6 8.8c.53 1.03.92 2.15 1.2 3.34.26 1.2.4 2.47.4 3.8 0 1.82-.37 3.77-.94 5.74a43.19 43.19 0 0 1-2.2 5.77 69.59 69.59 0 0 1-4.45 8.17 54.47 54.47 0 0 1-6.25 8.16 17.98 17.98 0 0 1-3.46 2.93c-.32.2-.62.3-.91.39-.3-.08-.6-.2-.9-.4-1.06-.63-2.2-1.6-3.47-2.92-2-2.08-4.22-4.97-6.25-8.16a69.6 69.6 0 0 1-4.46-8.17 43.19 43.19 0 0 1-2.19-5.77 20.93 20.93 0 0 1-.93-5.73c0-1.34.13-2.61.4-3.8.27-1.2.67-2.32 1.2-3.35a12.92 12.92 0 0 1 4.67-5.12 17.1 17.1 0 0 1 2.8-1.46c1-.41 2.1-.76 3.26-1.04C19.88.76 21.89.58 24 .5z" opacity=".2"/><path d="M28.4.82C26.94.64 25.62.35 24 .35c-1.68 0-3.05.3-4.54.48L24 25.2l-.01.02L15.14 1.5c-.78.22-1.58.44-2.28.73-.68.27-1.26.63-1.86.96l13 22.04L7.46 5.88c-.03.04-.08.06-.1.1a12.6 12.6 0 0 0-1.97 2.83 14.07 14.07 0 0 0-1.2 3.34c-.15.7-.17 1.48-.23 2.23l20.03 10.87v.01l-19.6-5.74c.14.73.13 1.42.34 2.16.36 1.23.89 2.4 1.37 3.6h35.8c.48-1.2 1.01-2.37 1.37-3.6.21-.74.2-1.43.35-2.16l-19.6 5.74v-.01l20.01-10.88c-.06-.75-.08-1.53-.23-2.23a14.1 14.1 0 0 0-1.2-3.34 12.9 12.9 0 0 0-1.95-2.84l-.11-.1-16.5 19.35v-.04L36.99 3.19c-.6-.34-1.18-.69-1.85-.96-.7-.3-1.5-.51-2.29-.73l-8.79 23.55zM24 25.22v.01zm-.01.01v.01zm.02.02v.01zm-.03 0v.01zm.02 0v.01zm-.01.01z" opacity=".43" fill="url(#i)"/><rect ry="1.28" rx="1.44" y="16.89" x="19.85" height="23.97" width="2.18" transform="rotate(-31.05)" overflow="visible" fill="url(#j)"/><path d="M25.9 25.5l-1.18.3.45 1.7c.15.56-.18 1.14-.75 1.3l-4.14 1.1a1.06 1.06 0 0 1-1.3-.74l-.44-1.68-1.23.33.03.18.66 2.46a1.48 1.48 0 0 0 1.8 1.05l5.78-1.55a1.48 1.48 0 0 0 1.05-1.82l-.67-2.46a1.5 1.5 0 0 0-.06-.18z" overflow="visible" fill="#1a1a1a"/><path d="M26.84 6.1L11.4 22.7l3.8 6.3 21.9-5.88z" overflow="visible" fill="url(#k)" fill-rule="evenodd"/><rect width="3.45" height="8.63" x="-5.33" y="24.71" rx="4.05" ry=".71" transform="rotate(-31.05)" overflow="visible" fill="url(#l)"/><path d="M26.84 6.1L11.4 22.7l3.8 6.3 21.9-5.88z" overflow="visible" fill="url(#m)" fill-rule="evenodd"/></svg>

<?xml version="1.0" encoding="UTF-8" standalone="no"?>
<svg
   xmlns:dc="http://purl.org/dc/elements/1.1/"
   xmlns:cc="http://creativecommons.org/ns#"
   xmlns:rdf="http://www.w3.org/1999/02/22-rdf-syntax-ns#"
   xmlns:svg="http://www.w3.org/2000/svg"
   xmlns="http://www.w3.org/2000/svg"
   xmlns:xlink="http://www.w3.org/1999/xlink"
   xmlns:sodipodi="http://sodipodi.sourceforge.net/DTD/sodipodi-0.dtd"
   xmlns:inkscape="http://www.inkscape.org/namespaces/inkscape"
   width="48"
   height="48"
   version="1.1"
   id="svg63"
   sodipodi:docname="preferences-system-notifications.svg"
   inkscape:version="0.92.4 (5da689c313, 2019-01-14)">
  <sodipodi:namedview
     pagecolor="#ffffff"
     bordercolor="#666666"
     borderopacity="1"
     objecttolerance="10"
     gridtolerance="10"
     guidetolerance="10"
     inkscape:pageopacity="0"
     inkscape:pageshadow="2"
     inkscape:window-width="1112"
     inkscape:window-height="480"
     id="namedview65"
     showgrid="false"
     inkscape:zoom="4.9166667"
     inkscape:cx="2.1355932"
     inkscape:cy="24"
     inkscape:window-x="0"
     inkscape:window-y="25"
     inkscape:window-maximized="0"
     inkscape:current-layer="svg63" />
  <metadata
     id="metadata2">
    <rdf:RDF>
      <cc:Work>
        <dc:format>image/svg+xml</dc:format>
        <dc:type
           rdf:resource="http://purl.org/dc/dcmitype/StillImage" />
        <dc:title></dc:title>
      </cc:Work>
    </rdf:RDF>
  </metadata>
  <defs
     id="defs45">
    <linearGradient
       id="g">
      <stop
         offset="0"
         stop-color="#374845"
         id="stop4" />
      <stop
         offset="1"
         stop-color="#536c67"
         id="stop6" />
    </linearGradient>
    <linearGradient
       id="f">
      <stop
         offset="0"
         stop-color="#374845"
         id="stop9" />
      <stop
         offset="1"
         stop-color="#536c67"
         id="stop11" />
    </linearGradient>
    <linearGradient
       id="b">
      <stop
         stop-color="#373e48"
         offset="0"
         id="stop14" />
      <stop
         stop-color="#535d6c"
         offset="1"
         id="stop16" />
    </linearGradient>
    <linearGradient
       id="e">
      <stop
         offset="0"
         stop-color="#333"
         stop-opacity=".03"
         id="stop19" />
      <stop
         offset="1"
         stop-color="#1a1a1a"
         id="stop21" />
    </linearGradient>
    <linearGradient
       id="d">
      <stop
         offset="0"
         stop-color="#535d6c"
         id="stop24" />
      <stop
         offset="1"
         stop-color="#fff"
         id="stop26" />
    </linearGradient>
    <linearGradient
       id="a">
      <stop
         offset="0"
         stop-color="#39465c"
         id="stop29" />
      <stop
         offset="1"
         stop-opacity="0"
         id="stop31" />
    </linearGradient>
    <linearGradient
       xlink:href="#a"
       id="m"
       gradientUnits="userSpaceOnUse"
       x1="48.09"
       y1="9.68"
       x2="60"
       y2="52"
       gradientTransform="matrix(0.2121,-0.12771,0.11523,0.19137,0.32,15.81)" />
    <linearGradient
       xlink:href="#c"
       id="k"
       x1="78.57"
       y1="37.61"
       x2="71.97"
       y2="16.38"
       gradientUnits="userSpaceOnUse"
       gradientTransform="matrix(0.75666,0,0,0.75666,-34.93,-0.68)" />
    <linearGradient
       id="c">
      <stop
         offset="0"
         stop-color="#1a1a1a"
         id="stop36" />
      <stop
         offset="1"
         stop-color="#4d4d4d"
         id="stop38" />
    </linearGradient>
    <linearGradient
       xlink:href="#d"
       id="h"
       x1="23.99"
       y1="47.1"
       x2="24"
       y2=".35"
       gradientUnits="userSpaceOnUse" />
    <linearGradient
       xlink:href="#e"
       id="i"
       x1="24.42"
       y1="32.75"
       x2="24"
       y2=".49"
       gradientUnits="userSpaceOnUse" />
    <linearGradient
       xlink:href="#f"
       id="j"
       x1="19.85"
       y1="28.88"
       x2="22.03"
       y2="28.88"
       gradientUnits="userSpaceOnUse" />
    <linearGradient
       xlink:href="#g"
       id="l"
       x1="-5.33"
       y1="29.03"
       x2="-1.88"
       y2="29.03"
       gradientUnits="userSpaceOnUse" />
  </defs>
  <path
     d="m 24,0.35 c -5.83,0 -10.52,1.12 -13.93,3.33 -4.1,2.66 -6.27,6.9 -6.27,12.27 0,7.23 5.8,16.88 7.58,19.67 a 54.48,54.48 0 0 0 6.25,8.16 c 2.54,2.64 4.57,3.87 6.37,3.87 1.8,0 3.83,-1.23 6.37,-3.87 2,-2.08 4.22,-4.97 6.25,-8.16 C 38.4,32.83 44.2,23.18 44.2,15.95 44.2,10.58 42.04,6.34 37.94,3.68 34.52,1.47 29.84,0.35 24,0.35 Z"
     id="path47"
     style="fill:url(#h)"
     inkscape:connector-curvature="0" />
  <path
     d="m 24,0.35 c -5.83,0 -10.52,1.12 -13.93,3.33 -4.1,2.66 -6.27,6.9 -6.27,12.27 0,7.23 5.8,16.88 7.58,19.67 a 54.48,54.48 0 0 0 6.25,8.16 c 2.54,2.64 4.57,3.87 6.37,3.87 1.8,0 3.83,-1.23 6.37,-3.87 2,-2.08 4.22,-4.97 6.25,-8.16 C 38.4,32.83 44.2,23.18 44.2,15.95 44.2,10.58 42.04,6.34 37.94,3.68 34.52,1.47 29.84,0.35 24,0.35 Z m 0,0.14 c 2.11,0.09 4.12,0.27 5.88,0.7 1.16,0.27 2.25,0.62 3.26,1.03 1.01,0.42 1.94,0.9 2.8,1.46 A 12.92,12.92 0 0 1 40.6,8.8 c 0.53,1.03 0.92,2.15 1.2,3.34 0.26,1.2 0.4,2.47 0.4,3.8 0,1.82 -0.37,3.77 -0.94,5.74 a 43.19,43.19 0 0 1 -2.2,5.77 69.59,69.59 0 0 1 -4.45,8.17 54.47,54.47 0 0 1 -6.25,8.16 17.98,17.98 0 0 1 -3.46,2.93 c -0.32,0.2 -0.62,0.3 -0.91,0.39 -0.3,-0.08 -0.6,-0.2 -0.9,-0.4 -1.06,-0.63 -2.2,-1.6 -3.47,-2.92 -2,-2.08 -4.22,-4.97 -6.25,-8.16 A 69.6,69.6 0 0 1 8.91,27.45 43.19,43.19 0 0 1 6.72,21.68 20.93,20.93 0 0 1 5.79,15.95 c 0,-1.34 0.13,-2.61 0.4,-3.8 0.27,-1.2 0.67,-2.32 1.2,-3.35 a 12.92,12.92 0 0 1 4.67,-5.12 17.1,17.1 0 0 1 2.8,-1.46 c 1,-0.41 2.1,-0.76 3.26,-1.04 C 19.88,0.76 21.89,0.58 24,0.5 Z"
     id="path49"
     inkscape:connector-curvature="0"
     style="opacity:0.2" />
  <path
     d="M 28.4,0.82 C 26.94,0.64 25.62,0.35 24,0.35 c -1.68,0 -3.05,0.3 -4.54,0.48 L 24,25.2 23.99,25.22 15.14,1.5 C 14.36,1.72 13.56,1.94 12.86,2.23 12.18,2.5 11.6,2.86 11,3.19 L 24,25.23 7.46,5.88 C 7.43,5.92 7.38,5.94 7.36,5.98 a 12.6,12.6 0 0 0 -1.97,2.83 14.07,14.07 0 0 0 -1.2,3.34 c -0.15,0.7 -0.17,1.48 -0.23,2.23 l 20.03,10.87 v 0.01 L 4.39,19.52 c 0.14,0.73 0.13,1.42 0.34,2.16 0.36,1.23 0.89,2.4 1.37,3.6 h 35.8 c 0.48,-1.2 1.01,-2.37 1.37,-3.6 0.21,-0.74 0.2,-1.43 0.35,-2.16 l -19.6,5.74 V 25.25 L 44.03,14.37 C 43.97,13.62 43.95,12.84 43.8,12.14 A 14.1,14.1 0 0 0 42.6,8.8 12.9,12.9 0 0 0 40.65,5.96 L 40.54,5.86 24.04,25.21 V 25.17 L 36.99,3.19 C 36.39,2.85 35.81,2.5 35.14,2.23 34.44,1.93 33.64,1.72 32.85,1.5 L 24.06,25.05 Z M 24,25.22 v 0.01 z m -0.01,0.01 v 0.01 z m 0.02,0.02 v 0.01 z m -0.03,0 v 0.01 z m 0.02,0 v 0.01 z m -0.01,0.01 z"
     id="path51"
     style="opacity:0.43000004;fill:url(#i)"
     inkscape:connector-curvature="0" />
  <rect
     ry="1.28"
     rx="1.4400001"
     y="16.889999"
     x="19.85"
     height="23.969999"
     width="2.1800001"
     transform="rotate(-31.05)"
     overflow="visible"
     id="rect53"
     style="overflow:visible;fill:url(#j)" />
  <path
     d="m 25.9,25.5 -1.18,0.3 0.45,1.7 c 0.15,0.56 -0.18,1.14 -0.75,1.3 l -4.14,1.1 a 1.06,1.06 0 0 1 -1.3,-0.74 l -0.44,-1.68 -1.23,0.33 0.03,0.18 0.66,2.46 a 1.48,1.48 0 0 0 1.8,1.05 l 5.78,-1.55 a 1.48,1.48 0 0 0 1.05,-1.82 L 25.96,25.67 A 1.5,1.5 0 0 0 25.9,25.49 Z"
     overflow="visible"
     id="path55"
     inkscape:connector-curvature="0"
     style="overflow:visible;fill:#1a1a1a" />
  <path
     d="M 26.84,6.1 11.4,22.7 15.2,29 37.1,23.12 Z"
     overflow="visible"
     id="path57"
     style="overflow:visible;fill:url(#k);fill-rule:evenodd"
     inkscape:connector-curvature="0" />
  <rect
     width="3.45"
     height="8.6300001"
     x="-5.3299999"
     y="24.709999"
     rx="4.0500002"
     ry="0.70999998"
     transform="rotate(-31.05)"
     overflow="visible"
     id="rect59"
     style="overflow:visible;fill:url(#l)" />
  <path
     d="M 26.84,6.1 11.4,22.7 15.2,29 37.1,23.12 Z"
     overflow="visible"
     id="path61"
     style="overflow:visible;fill:url(#m);fill-rule:evenodd"
     inkscape:connector-curvature="0" />
</svg>
